Adwaita++-Dark/actions/22/format-indent-less.svg

<svg height="22" viewBox="0 0 22 22" width="22" xmlns="http://www.w3.org/2000/svg">
  <path d="m1 1v2h14v-2zm0 4v2l8 .0039062v-2zm14 .0039062-5 3 5 2.9999998zm-14 3.9960938v2h8v-2zm0 4v2h14v-2z" fill="#e6ddff" transform="translate(3 3)"/>
</svg>

<svg xmlns="http://www.w3.org/2000/svg" width="22" height="22" viewBox="0 0 22 22">
 <defs>
  <style id="current-color-scheme" type="text/css">
   .ColorScheme-Text { color:#E6DDFF; } .ColorScheme-Highlight { color:#4285f4; }
  </style>
 </defs>
 <path style="fill:currentColor" class="ColorScheme-Text" d="M 1 1 L 1 3 L 15 3 L 15 1 L 1 1 z M 1 5 L 1 7 L 9 7.0039062 L 9 5.0039062 L 1 5 z M 15 5.0039062 L 10 8.0039062 L 15 11.003906 L 15 5.0039062 z M 1 9 L 1 11 L 9 11 L 9 9 L 1 9 z M 1 13 L 1 15 L 15 15 L 15 13 L 1 13 z" transform="translate(3 3)"/>
</svg>
